X:1
T:The Old Rugged Cross + The Broken Heart
T:George Bennard, 1913 Thomas Dennis, 1907
T:George Bennard, 1913 Thomas Dennis, 1907
%%score 1 2 { 3 | 4 }
L:1/8
Q:1/4=90
M:3/4
K:Bb
V:1 treble nm="Alto" snm="A."
V:2 treble-8 nm="Tenor" snm="T."
V:3 treble nm="Piano" snm="Pno."
V:4 bass 
V:1
 DE | F3 =E G2 | F4 FF | G3 ^F A2 | G4 GG | A3 G F2 | E2 F2 E2 | D4 DE | F3 =E G2 | F4 FF | %10
w: On a|hill far a-|way stood an|old rug- ged|cross, The *|em- blem of|suf- f'ring and|shame; And I|love that old|cross where the|
w: Oh, the|old rug- ged|cross, so de-|spised by the|world, Has a|won- drous at-|trac- tion for|me; For the|dear Lamb of|God left His|
 G3 ^F A2 | G4 GG | A3 G F2 | e2 d2 c2 | B4 AB | c3 c c2 | c2 B2 A2 | B6- | B4 BA | G3 G G2 | %20
w: dear- est and|best For a|world of lost|sin- ners was|slain. So I'll|cher- ish the|old rug- ged|cross|_ Till my|tro- phies at|
w: glo- ry a-|bove To *|bear it to|dark Cal- va-|ry. * *||||||
 B2 A2 G2 | F4 FB | d3 d d2 | d2 e2 d2 | G6- | G4 ee | d3 c B2 | F2 A2 c2 | B6 |] %29
w: last I lay|down; I will|cling to the|old rug- ged|cross|_ And ex-|change it some|day for a|crown.|
w: |||||||||
V:2
 FB | d4 d2 | B2 c2 d2 | e4 d2 | B4 d2 | d4 c2 | B4 A2 | B4 GB | e4 e2 | e2 d2 c2 | d4 d2 | c4 B2 | %12
w: Have you|read the|sto _ ry|of the|cross, Where|Je- sus|bled and|died, Where your|debt was|paid by the|pre- cious|blood That|
w: Have you|read how|they placed the|crown of|thorns Up-|on His|king- ly|brow, How He|cri- ed,|"They know not|what they|do; O|
w: Have you|read how|the dy- ing|thief was|saved While|hang- ing|on the|tree, When he|look- ed|with plead- ing|eyes and|said, "O|
w: Have you|read how|in anguish He|cried a-|loud And|died on|Cal- va-|ry? Have you|ev- er|said, _ "I|thank Thee,|Lord, For|
 c2 d2 e2 | d4 c2 | B4 F2 | c3 c c2 | e2 d2 c2 | B4 c2 | d4 d2 | f3 e d2 | d2 c2 B2 | c4 F2 | %22
w: flowed from His|wound- ed|side? He|di- ed of|a bro- ken|heart for|you, He|di- ed of|a bro- ken|heart; Oh,|
w: Fa- ther, for-|give them|now"? *||||||||
w: Lord, _ re-|mem- ber|me"? *||||||||
w: giv- ing Thy|life for|me"? *||||||||
 d4 d2 | f2 e2 d2 | c4 d2 | e2 d2 c2 | B3 A B2 | d4 c2 | B6 |] %29
w: won- drous|love! _ for|you, for|me _ He|died of a|bro- ken|heart.|
w: |||||||
w: |||||||
w: |||||||
V:3
 DE | F3 =E G2 | F4 FF | G3 ^F A2 | G4 GG | A3 G F2 | E2 F2 E2 | D4 DE | F3 =E G2 | F4 FF | %10
 G3 ^F A2 | G4 GG | A3 G F2 | e2 d2 c2 | B4 AB | c3 c c2 | c2 B2 A2 | B6- | B4 BA | G3 G G2 | %20
 B2 A2 G2 | F4 FB | d3 d d2 | d2 e2 d2 | G6- | G4 ee | d3 c B2 | F2 A2 c2 | B6 |] %29
V:4
 F,B, | D4 D2 | B,2 C2 D2 | E4 D2 | B,4 D2 | D4 C2 | B,4 A,2 | B,4 G,B, | E4 E2 | E2 D2 C2 | %10
 D4 D2 | C4 B,2 | C2 D2 E2 | D4 C2 | B,4 F,2 | C3 C C2 | E2 D2 C2 | B,4 C2 | D4 D2 | F3 E D2 | %20
 D2 C2 B,2 | C4 F,2 | D4 D2 | F2 E2 D2 | C4 D2 | E2 D2 C2 | B,3 A, B,2 | D4 C2 | B,6 |] %29

